src/assets/icons/weeks,fancy,39.svg

<svg width="48" height="48" viewBox="0 0 48 48" fill="none" xmlns="http://www.w3.org/2000/svg">
<rect opacity="0.2" x="4" y="6" width="40" height="40" rx="4" fill="black"/>
<path d="M14.7069 41.2784C19.2807 41.2784 22.552 38.7628 22.5421 35.2827C22.552 32.7472 20.9412 30.9375 17.9483 30.5597V30.4006C20.2253 29.9929 21.7963 28.3821 21.7864 26.0952C21.7963 22.8835 18.9824 20.358 14.7665 20.358C10.5904 20.358 7.44833 22.804 7.38867 26.3239H11.5151C11.5648 24.7727 12.9867 23.7685 14.7466 23.7685C16.4867 23.7685 17.65 24.8224 17.6401 26.3537C17.65 27.9545 16.2878 29.0384 14.329 29.0384H12.4299V32.2003H14.329C16.6358 32.2003 18.0776 33.3537 18.0676 34.9943C18.0776 36.6151 16.6855 37.7287 14.7168 37.7287C12.8176 37.7287 11.3958 36.7344 11.3162 35.2429H6.981C7.0506 38.8026 10.2324 41.2784 14.7069 41.2784ZM33.0048 20.358C28.4508 20.3381 25.3784 23.321 25.3983 27.4176C25.4082 31.2159 28.0431 33.9702 31.6525 33.9702C33.8897 33.9702 35.8784 32.8864 36.7832 31.0966H36.9224C36.9125 35.1335 35.5105 37.5895 32.8556 37.5895C31.2946 37.5895 30.171 36.7344 29.8429 35.2528H25.5971C25.9949 38.6832 28.7789 41.2784 32.8556 41.2784C37.8968 41.2784 41.1483 37.2017 41.1383 30.2912C41.1284 22.9134 37.1909 20.3778 33.0048 20.358ZM33.0346 23.7386C35.0133 23.7386 36.475 25.3494 36.4949 27.2884C36.5048 29.2372 34.9636 30.848 32.9949 30.848C31.0062 30.848 29.5843 29.2969 29.5744 27.2983C29.5545 25.3097 31.036 23.7386 33.0346 23.7386Z" fill="black"/>
<g opacity="0.4">
<path d="M10 4C10 2.89543 10.8954 2 12 2C13.1046 2 14 2.89543 14 4V8C14 9.10457 13.1046 10 12 10C10.8954 10 10 9.10457 10 8V4Z" fill="black"/>
<path d="M34 4C34 2.89543 34.8954 2 36 2C37.1046 2 38 2.89543 38 4V8C38 9.10457 37.1046 10 36 10C34.8954 10 34 9.10457 34 8V4Z" fill="black"/>
</g>
<path fill-rule="evenodd" clip-rule="evenodd" d="M10 6.00869C7.52043 6.04456 6.11466 6.22849 5.17157 7.17157C4 8.34315 4 10.2288 4 14V16H44V14C44 10.2288 44 8.34315 42.8284 7.17157C41.8853 6.22849 40.4796 6.04456 38 6.00869V8C38 9.10457 37.1046 10 36 10C34.8954 10 34 9.10457 34 8V6H14V8C14 9.10457 13.1046 10 12 10C10.8954 10 10 9.10457 10 8V6.00869Z" fill="black"/>
</svg>

<svg xmlns="http://www.w3.org/2000/svg" width="48" height="48" fill="none" viewBox="0 0 48 48">
  <rect width="40" height="40" x="4" y="6" fill="#000" opacity=".2" rx="4"/>
  <path fill="#000" d="M14.707 41.278c4.574 0 7.845-2.515 7.835-5.995.01-2.536-1.6-4.346-4.594-4.723v-.16c2.277-.407 3.848-2.018 3.838-4.305.01-3.211-2.804-5.737-7.02-5.737-4.176 0-7.318 2.446-7.377 5.966h4.126c.05-1.551 1.472-2.556 3.232-2.556 1.74 0 2.903 1.054 2.893 2.586.01 1.6-1.352 2.684-3.311 2.684h-1.9V32.2h1.9c2.307 0 3.749 1.154 3.739 2.794.01 1.621-1.383 2.735-3.351 2.735-1.9 0-3.321-.995-3.4-2.486H6.98c.07 3.56 3.251 6.035 7.726 6.035zm18.298-20.92c-4.554-.02-7.627 2.963-7.607 7.06.01 3.798 2.645 6.552 6.255 6.552 2.237 0 4.225-1.084 5.13-2.873h.14c-.01 4.036-1.413 6.492-4.067 6.492-1.561 0-2.685-.855-3.013-2.336h-4.246c.398 3.43 3.182 6.025 7.259 6.025 5.04 0 8.292-4.076 8.282-10.987-.01-7.378-3.947-9.913-8.133-9.933zm.03 3.38c1.978 0 3.44 1.611 3.46 3.55.01 1.95-1.531 3.56-3.5 3.56-1.989 0-3.41-1.551-3.42-3.55-.02-1.988 1.461-3.56 3.46-3.56z"/>
  <g opacity=".4">
    <path fill="#000" d="M10 4a2 2 0 114 0v4a2 2 0 11-4 0V4zM34 4a2 2 0 114 0v4a2 2 0 11-4 0V4z"/>
  </g>
  <path fill="#000" fill-rule="evenodd" d="M10 6.009c-2.48.036-3.885.22-4.828 1.163C4 8.343 4 10.229 4 14v2h40v-2c0-3.771 0-5.657-1.172-6.828-.943-.944-2.348-1.127-4.828-1.163V8a2 2 0 11-4 0V6H14v2a2 2 0 11-4 0V6.009z" clip-rule="evenodd"/>
</svg>
